X: 760
T: Ferahnümâ Seyir
C: Erol Bingöl
O: Turkey
F: http://compmusic.upf.edu/node/140
N: ferahnuma--seyir--sofyan--1--erol_bingol
N: makam= ferahnuma
N: form= seyir
N: usul= sofyan = 4/4
M: 4/4
L: 1/16
K: C _B _e  
Q: 1/4=60
%%MIDI tuningsystem comma53
G6A2 B4 d4  | c2B2 A2G2 G8  | G2A2 B2c2 d2e2 c4  | \
w:   |   |   | 
f4 e2ed d8  | 
w:   | 
c2d4c2 B4 A4  | G4 F2G2 A8  | B4 A2G2 F2G2 A4  | \
w:   |   |   | 
G2F2 E2F2 D8  | |


